X:1
T: Bedrule
T: 8 x 32S 3C (RSCDS Bk 33)
P: The Annandale Strathspey
C: Anna Robertson
C: Arr. T. Traub 3/5/2000
R: strathspey
M: 4/4
L: 1/8
%
K: D
|: F>E|"D"D2 D>E F<DF>G| "D"A3 B "A"A>Bd>e|"D"f3 d "G"g>fe<d|"Em"B2 e2 "A"e2 F>E| "D"D2 D>E F<DF>G|
"D"A3 B A>Bd>e|"D"f3 d "G"g>fe<d|"Em"B2 d2 "D"d2 :| "A"A2|"D"a2 a>g f>ga>f|"Em"g>ag>f "A"e2 A2|"D"f3 e "Bm"d>e"E7"f<d|"A"e4 A2 A2|
"G"B3 c d>cd>B|"D"A>BA>F "Bm"D2 F2|"A"E2 A>B c>A"E"B<^G|"A"A6 "A7"A2 || "D"a2 a>g f>ga>f |"Em"g>ag>f "A"e2 A2|
"Bm"f3 e "E"d>ef<d|"A"e4 A>GF>E|"D"D2 D>E F<DF>G|"D"A3 B A>Bd>e|"D"f3 d "Bm"g>fe<d|"G"B2 "Gm"d2 "D"d2 |]
